svgs/sharp-thin/square-up.svg

<svg xmlns="http://www.w3.org/2000/svg" viewBox="0 0 448 512"><!--! Font Awesome Pro 6.6.0 by @fontawesome - https://fontawesome.com License - https://fontawesome.com/license (Commercial License) Copyright 2024 Fonticons, Inc. --><path d="M16 48l0 416 416 0 0-416L16 48zM0 32l16 0 416 0 16 0 0 16 0 416 0 16-16 0L16 480 0 480l0-16L0 48 0 32zM192 256l0 112 64 0 0-112 0-16 16 0 64 0 0-1.4-112-112-112 112 0 1.4 64 0 16 0 0 16zm20.7-140.7L224 104l11.3 11.3L352 232l0 8 0 16-16 0-48 0-16 0 0 16 0 96 0 16-16 0-64 0-16 0 0-16 0-96 0-16-16 0-48 0-16 0 0-16 0-8L212.7 115.3z"/></svg>

<svg xmlns="http://www.w3.org/2000/svg" viewBox="0 0 448 512"><!--! Font Awesome Pro 6.5.2 by @fontawesome - https://fontawesome.com License - https://fontawesome.com/license (Commercial License) Copyright 2024 Fonticons, Inc. --><path d="M16 48V464H432V48H16zM0 32H16 432h16V48 464v16H432 16 0V464 48 32zM192 256V368h64V256 240h16 64v-1.4l-112-112-112 112V240h64 16v16zm20.7-140.7L224 104l11.3 11.3L352 232v8 16H336 288 272v16 96 16H256 192 176V368 272 256H160 112 96V240v-8L212.7 115.3z"/></svg>
